X: 10313
T: Dolly's Hill
R: reel
M: 4/4
K: Gmajor
DGGF GABc|defg agfd|faab a2 gf|dafd cAFA|
DGGF GABc|defg agfd|faab a2 gf|1 decA AGGF:|2 decA AGGf||
g2 dg Bgdg|Gggd edcB|Aaag abag|fdaf dafd|
g2 dc BAGF|G2 DG EGDG|FGAB ceag|1 fdcA AGGf:|2 fdcA AG G2||

